X:1
T:Marlborough (Sankey), 11.11.11.11.11
T:Marlborough (Sankey), 11.11.11.11.11
T:Thomas Koschat, 1862, arr. Ira D. Sankey, 1891
T:Public Domain Courtesy of the Cyber Hymnal™
C:Thomas Koschat, 1862, arr. Ira D. Sankey, 1891
Z:Public Domain
Z:Courtesy of the Cyber Hymnal™
%%score ( 1 2 ) ( 3 4 )
L:1/8
Q:1/4=118
M:3/4
K:F
V:1 treble 
V:2 treble 
V:3 bass 
V:4 bass 
V:1
 C2 | [FA]2 [FA]2 [FA]2 | [FA]2 [CF]2 C2 | [FA]2 [FA]2 [FA]2 | [EB]4 C2 | [CB]2 [CB]2 [DB]2 | %6
 [EB]2 [EG]2 C2 | [EB]2 [FB]2 [GB]2 | (B2 A2) C2 | [FA]2 [FA]2 [FA]2 | [FA]2 [CF]2 C2 | %11
 [FA]2 [EA]2 [_EA]2 |!<(! (A2 G2)!<)! [DG]2 | [Dd]2 [Fd]2 [Fd]2 | [Fd]2 [Fc]2 F2 | %15
 [EB]2 [EA]2 [EG]2 | F4 [_EF]2 | [Dd]2 [Fd]2 [Fd]2 | [Fd]2 [Fc]2 F2 | [EB]2 [EA]2 [EG]2 | F4 |] %21
V:2
 C2 | x6 | x4 C2 | x6 | x4 C2 | x6 | x4 C2 | x6 | F4 C2 | x6 | x4 C2 | x6 | D4 x2 | x6 | x4 F2 | %15
 x6 | F4 x2 | x6 | x4 F2 | x6 | F4 |] %21
V:3
 [F,A,]2 | [F,C]2 [F,E]2 [F,D]2 | [F,C]2 [F,A,]2 [F,A,]2 | [F,C]2 [F,C]2 [F,C]2 | [G,C]4 [C,C]2 | %5
 [C,G,]2 [C,E,]2 [C,F,]2 | [C,G,]2 [C,C]2 [C,C]2 | [C,C]2 [D,C]2 [E,C]2 | (D2 C2) [F,A,]2 | %9
 [F,C]2 [F,E]2 [F,D]2 | [F,C]2 [F,A,]2 [F,A,]2 | [F,C]2 [F,C]2 [^F,C]2 | (C2 B,2) [B,,B,]2 | %13
 [B,,B,]2 [B,,G,]2 [=B,,^G,]2 | [C,A,]2 [C,A,]2 [D,A,]2 | [G,,D]2 [C,C]2 [C,B,]2 | %16
 [D,A,]4 [B,,A,]2 | [B,,B,]2 [B,,G,]2 [=B,,^G,]2 | [C,A,]2 [C,A,]2 [D,A,]2 | %19
 [G,,D]2 [C,C]2 [C,B,]2 | [F,A,]4 |] %21
V:4
 x2 | x6 | x6 | x6 | x6 | x6 | x6 | x6 | F,4 x2 | x6 | x6 | x6 | G,4 x2 | x6 | x6 | x6 | x6 | x6 | %18
 x6 | x6 | x4 |] %21

